PENUP
LEFTTURN 90
FORWARD 200
LEFTTURN 90
FORWARD 200
RIGHTTURN 180

:L := 400
:D := 10

LEFTTURN 90
REPEAT 10 [
    PENDOWN
    REPEAT 3 [
        RIGHTTURN 120
        FORWARD :L
    ]
    PENUP
    RIGHTTURN 180
    FORWARD :D
    LEFTTURN 180
    :L := :L - :D * 2
]    

