PENUP

LEFT 90
FORWARD 200
LEFT 90
FORWARD 200
RIGHT 180

MAKE "L 400
MAKE "D 10

LEFT 90
REPEAT 10 [
    PENDOWN
    REPEAT 3 [
        RIGHT 120
        FORWARD :L
    ]
    PENUP
    RIGHT 180
    FORWARD :D
    LEFT 180
    MAKE "L :L - :D * 2
]    

